bell/images/tiktok.svg

<svg width="15" height="18" viewBox="0 0 15 18" fill="none" xmlns="http://www.w3.org/2000/svg">
<path fill-rule="evenodd" clip-rule="evenodd" d="M10.9181 0C11.2067 2.55442 12.5918 4.07735 14.9999 4.23937V7.11242C13.6043 7.25283 12.3819 6.78299 10.9601 5.89731V11.2708C10.9601 18.097 3.73032 20.2302 0.82372 15.3373C-1.04406 12.1889 0.0996945 6.66418 6.09127 6.44276V9.47242C5.63482 9.54803 5.14689 9.66684 4.70093 9.82345C3.3683 10.2879 2.6128 11.1574 2.82266 12.6911C3.22665 15.629 8.46272 16.4984 8.02725 10.7577V0.00540047H10.9181V0Z" fill="#5A6482"/>
</svg>

<svg width="15" height="18" fill="none" xmlns="http://www.w3.org/2000/svg"><path fill-rule="evenodd" clip-rule="evenodd" d="M10.918 0c.289 2.554 1.674 4.077 4.082 4.24v2.872c-1.396.14-2.618-.329-4.04-1.215v5.374c0 6.826-7.23 8.96-10.136 4.066C-1.044 12.19.1 6.664 6.09 6.443v3.03a8.466 8.466 0 00-1.39.35c-1.333.465-2.088 1.334-1.878 2.868.404 2.938 5.64 3.807 5.204-1.933V.005h2.891V0z" fill="#5A6482"/></svg>
